src/static/logos/supportkit.svg

<?xml version="1.0" encoding="UTF-8" standalone="no"?>
<svg width="256px" height="192px" viewBox="0 0 256 192" version="1.1" xmlns="http://www.w3.org/2000/svg" xmlns:xlink="http://www.w3.org/1999/xlink" preserveAspectRatio="xMidYMid">
    <defs>
        <radialGradient cx="59.1702583%" cy="15.5559933%" fx="59.1702583%" fy="15.5559933%" r="47.5403908%" id="radialGradient-1">
            <stop stop-color="#EC3F3A" offset="0%"></stop>
            <stop stop-color="#92268E" offset="100%"></stop>
        </radialGradient>
    </defs>
    <g>
        <path d="M154.414782,78.2873052 C155.848568,31.0218993 113.966313,-5.64339614 67.0498057,0.719353894 C35.7852092,4.95877868 10.7305906,26.8010549 2.63676792,56.8765068 C-5.34247572,86.521513 5.12137846,118.252684 29.5101999,137.056035 C52.0915626,154.463792 74.9237605,171.54536 97.6744112,188.73325 C102.885177,192.671259 107.364083,193.050093 111.311382,189.918266 C115.78203,186.373541 115.824352,181.911151 113.955991,176.927479 C110.529974,167.790058 107.300084,158.578315 103.859615,149.038319 C105.959199,148.108268 107.845108,147.35473 109.65876,146.456678 C137.886496,132.474937 153.463053,109.648933 154.414782,78.2873052 Z M222.394222,41.2276926 C202.322243,30.2384264 181.800207,30.2859096 160.831208,40.0127418 C175.22275,74.7105808 169.374057,112.800373 141.653153,141.860097 C147.80739,146.722997 153.896595,151.534284 160.147863,156.47357 C156.307917,163.884048 152.410165,171.320331 148.597056,178.798937 C146.723534,182.476821 146.572827,186.182576 149.700525,189.255565 C152.958286,192.456553 156.739395,192.416295 160.581406,190.211423 C182.17904,177.816241 204.070864,165.90002 225.307213,152.91233 C267.541463,127.080432 265.828971,65.0074902 222.394222,41.2276926 Z" fill="url(#radialGradient-1)"></path>
    </g>
</svg>

<svg width="256" height="192" xmlns="http://www.w3.org/2000/svg" preserveAspectRatio="xMidYMid"><defs><radialGradient cx="59.17%" cy="15.556%" fx="59.17%" fy="15.556%" r="47.54%" id="a"><stop stop-color="#EC3F3A" offset="0%"/><stop stop-color="#92268E" offset="100%"/></radialGradient></defs><path d="M154.415 78.287C155.849 31.022 113.966-5.643 67.05.72 35.785 4.96 10.73 26.801 2.637 56.877c-7.98 29.645 2.484 61.376 26.873 80.179 22.582 17.408 45.414 34.49 68.164 51.677 5.211 3.938 9.69 4.317 13.637 1.185 4.471-3.544 4.513-8.007 2.645-12.99-3.426-9.138-6.656-18.35-10.096-27.89 2.1-.93 3.985-1.683 5.799-2.581 28.227-13.982 43.804-36.808 44.756-68.17zm67.98-37.06c-20.073-10.989-40.595-10.941-61.564-1.214 14.392 34.698 8.543 72.787-19.178 101.847l18.495 14.614c-3.84 7.41-7.738 14.846-11.55 22.325-1.874 3.678-2.025 7.384 1.103 10.457 3.257 3.2 7.038 3.16 10.88.955 21.598-12.395 43.49-24.311 64.726-37.299 42.234-25.832 40.522-87.905-2.913-111.684z" fill="url(#a)"/></svg>
